X:5
T:Ashover simple chords 18
M:3/4
L:1/8
K:F
[F2F,2A,2C2] Ac2A | [BB,DF]c dc2A | [BB,DF]c dc2A | [AG,=B,D]G F2<G2 | [F2F,2A,2C2] Ac2A |
[BB,DF]c dc2A | [dB,DF]e fc2A | [BC,E,G,]A G2<F2 | [F2F,2A,2C2] Ac2A |
[BB,DF]c dc2A | [BB,DF]c dc2A | [AG,=B,D]G F2<G2 | [F2F,2A,2C2] Ac2A |
[BB,DF]c dc2A | [dB,DF]e fc2A | [BC,E,G,]A G2<F2 | [G2C,2E,2G,2] Gc2B |
[AC,E,G,]B GG FE | [G2C,2E,2G,2] Gc2B | [AC,E,G,]B F2<G2 | [G2C,2E,2G,2] Gc2B |
[AC,E,G,]B GG FE | [G2C,2E,2G,2] Gc2B | [AC,E,G,]B F2<G2 | [F2F,2A,2C2] Ac2A |
[BB,DF]c dc2A | [BB,DF]c dc2A | [AG,=B,D]G F2<G2 | [F2F,2A,2C2] Ac2A |
[BB,DF]c dc2A | [dB,DF]e fc2A | [BC,E,G,]A G2<F2 | [F2F,2A,2C2] Ac2A |
[BB,DF]c dc2A | [BB,DF]c dc2A | [AG,=B,D]G F2<G2 | [F2F,2A,2C2] Ac2A |
[BB,DF]c dc2A | [dB,DF]e fc2A | [BC,E,G,]A G2<F2 |


